icons/Buildings/building-4-fill.svg

<svg xmlns="http://www.w3.org/2000/svg" viewBox="0 0 24 24">
    <g>
        <path fill="none" d="M0 0h24v24H0z"/>
        <path d="M21 20h2v2H1v-2h2V3a1 1 0 0 1 1-1h16a1 1 0 0 1 1 1v17zM8 11v2h3v-2H8zm0-4v2h3V7H8zm0 8v2h3v-2H8zm5 0v2h3v-2h-3zm0-4v2h3v-2h-3zm0-4v2h3V7h-3z"/>
    </g>
</svg>

<svg viewBox="0 0 24 24" xmlns="http://www.w3.org/2000/svg"><path d="M21 20H23V22H1V20H3V3C3 2.44772 3.44772 2 4 2H20C20.5523 2 21 2.44772 21 3V20ZM8 11V13H11V11H8ZM8 7V9H11V7H8ZM8 15V17H11V15H8ZM13 15V17H16V15H13ZM13 11V13H16V11H13ZM13 7V9H16V7H13Z"/></svg>
